src/assets/images/footer_icons/y.svg

<svg width="40" height="40" viewBox="0 0 40 40" fill="none" xmlns="http://www.w3.org/2000/svg">
<circle cx="20" cy="20" r="19.25" stroke="#FF8F3E" stroke-width="1.5"/>
<path fill-rule="evenodd" clip-rule="evenodd" d="M26.5778 14.1084C27.7593 14.1721 28.3396 14.3394 28.8742 15.2491C29.4311 16.1577 29.712 17.7227 29.712 20.479V20.4826V20.4885C29.712 23.2319 29.4311 24.8086 28.8755 25.7078C28.3408 26.6175 27.7605 26.7825 26.579 26.8591C25.3975 26.9239 22.4297 26.9628 19.8585 26.9628C17.2824 26.9628 14.3132 26.9239 13.133 26.8579C11.954 26.7813 11.3737 26.6163 10.8341 25.7066C10.2834 24.8074 10 23.2307 10 20.4873V20.4849V20.4814V20.4779C10 17.7227 10.2834 16.1577 10.8341 15.2491C11.3737 14.3382 11.9552 14.1721 13.1342 14.1072C14.3132 14.0318 17.2824 14 19.8585 14C22.4297 14 25.3975 14.0318 26.5778 14.1084ZM23.552 20.4815L17.392 16.9462V24.0168L23.552 20.4815Z" fill="#FF8F3E"/>
</svg>

<svg width="40" height="40" fill="none" xmlns="http://www.w3.org/2000/svg"><circle cx="20" cy="20" r="19.25" stroke="#FF8F3E" stroke-width="1.5"/><path fill-rule="evenodd" clip-rule="evenodd" d="M26.578 14.108c1.181.064 1.762.231 2.296 1.141.557.909.838 2.474.838 5.23V20.488c0 2.744-.28 4.32-.837 5.22-.534.91-1.114 1.075-2.296 1.151-1.181.065-4.15.104-6.72.104-2.577 0-5.546-.04-6.726-.105-1.179-.077-1.76-.242-2.299-1.151-.55-.9-.834-2.476-.834-5.22V20.478c0-2.755.283-4.32.834-5.229.54-.91 1.121-1.077 2.3-1.142 1.18-.075 4.148-.107 6.724-.107 2.572 0 5.54.032 6.72.108zm-3.026 6.373l-6.16-3.535v7.07l6.16-3.534z" fill="#FF8F3E"/></svg>
